Resources/Public/Images/Icons/Glyphicons/tag.svg

<svg xmlns="http://www.w3.org/2000/svg" width="32" height="32"><path d="M14.1 4l13.8 13.8c.1.1.2.2.2.4s-.1.2-.2.4l-9.4 9.3c-.1.1-.2.2-.4.2s-.2-.1-.4-.2L4 14.1V4.5c0-.2.1-.2.2-.3 0-.1.2-.2.4-.2h9.5zm-3.6 3.5C10.1 7.1 9.6 7 9 7c-.5 0-1 .1-1.4.5-.4.4-.6.9-.6 1.5s.2 1 .6 1.4c.4.4.9.6 1.4.6.6 0 1-.2 1.4-.6.5-.4.6-.9.6-1.4s-.1-1.1-.5-1.5z"/></svg>

<?xml version="1.0" encoding="utf-8"?>
<!-- Generator: Adobe Illustrator 22.1.0, SVG Export Plug-In . SVG Version: 6.00 Build 0)  -->
<svg version="1.1" id="Ebene_1" xmlns="http://www.w3.org/2000/svg" xmlns:xlink="http://www.w3.org/1999/xlink" x="0px" y="0px"
	 width="32px" height="32px" viewBox="0 0 32 32" style="enable-background:new 0 0 32 32;" xml:space="preserve">
<path d="M14.1,4l13.8,13.8c0.1,0.1,0.2,0.2,0.2,0.4c0,0.2-0.1,0.2-0.2,0.4l-9.4,9.3c-0.1,0.1-0.2,0.2-0.4,0.2s-0.2-0.1-0.4-0.2
	L4,14.1V4.5c0-0.2,0.1-0.2,0.2-0.3C4.2,4.1,4.4,4,4.6,4H14.1L14.1,4z M10.5,7.5C10.1,7.1,9.6,7,9,7C8.5,7,8,7.1,7.6,7.5
	C7.2,7.9,7,8.4,7,9c0,0.6,0.2,1,0.6,1.4C8,10.8,8.5,11,9,11c0.6,0,1-0.2,1.4-0.6C10.9,10,11,9.5,11,9S10.9,7.9,10.5,7.5z"/>
</svg>
